!!!COM: Music21
!!!OTL: Marcha dos namorados
!!!OMV: pezas_marchas_marcha-dos-namorados_marcha-dos-namorados-partitura.musicxml
**kern
*I"Bagpipes
*I'Bag
*clefG^2
*k[b-]
*F:
*M2/4
=1
!LO:TX:a:t=Adagio
4cc
8ccL
8ddJ
=
4ee
8ddL
8eeJ
=
8ffL
8ddJ
8eeL
8ffJ
=
2gg
=
8cccL
8bb-J
8aaL
8ggJ
=
4ff
8eeL
8ffJ
=
8ggL
8ffJ
8eeL
8ddJ
=
2cc
=||
*M2/4
!LO:TX:a:t=Adagio
4cc
8ccL
8ddJ
=
4ee
8ddL
8eeJ
=
8ffL
8ddJ
8eeL
8ffJ
!!linebreak:original
=
2gg
=
8cccL
8bb-J
8aaL
8ggJ
=
4ff
8eeL
8ffJ
=
8ggL
8ffJ
8eeL
8ddJ
=
2cc
=||
4ff
8ffL
8ggJ
=
4aa
8ggL
8aaJ
=
8bb-L
8aaJ
8ggL
8ffJ
=
8aaL
16bb-L
16aaJJ
4gg
=
4gg
8ggL
8aaJ
=
4bb-
8aaL
8bb-J
=
8cccL
8bb-J
8aaL
8ggJ
!!linebreak:original
=
8bb-L
16cccL
16bb-JJ
4aa
=
4ff
8ffL
8ggJ
=
4aa
8ggL
8aaJ
=
8bb-L
8aaJ
8ggL
8ffJ
=
8ddL
16eeL
16ddJJ
4cc
=
8cccL
8bb-J
8ggL
8cccJ
=
8bb-L
8aaJ
8ffL
8cccJ
=
8bb-L
8ggJ
8eeL
8ffJ
=
2gg
=
4ff
8ffL
8ggJ
=
4aa
8ggL
8aaJ
!!linebreak:original
=
8bb-L
8aaJ
8ggL
8ffJ
=
8aaL
16bb-L
16aaJJ
4gg
=
4gg
8ggL
8aaJ
=
4bb-
8aaL
8bb-J
=
8cccL
8bb-J
8aaL
8ggJ
=
8bb-L
16cccL
16bb-JJ
4aa
=
4ff
8ffL
8ggJ
=
4aa
8ggL
8aaJ
=
8bb-L
8aaJ
8ggL
8ffJ
=
8ddL
16eeL
16ddJJ
4cc
=
8cccL
8bb-J
8ggL
8cccJ
!!linebreak:original
=
8bb-L
8aaJ
8ffL
8cccJ
=
8bb-L
8ggJ
8eeL
8ccJ
=
[4ff
16ffLL]
16ff
16ee
16ddJJ
=
[2ff
=
8ff]
8r
4r
==
*-
